configs/network-logos/rootstock.svg

<svg width="123" height="22" viewBox="0 0 123 22" fill="none" xmlns="http://www.w3.org/2000/svg">
<g id="rsk-logo 1" clip-path="url(#clip0_10026_63524)">
<g id="Clip path group">
<mask id="mask0_10026_63524" style="mask-type:luminance" maskUnits="userSpaceOnUse" x="0" y="0" width="123" height="22">
<g id="clip0_1854_2491">
<path id="Vector" d="M122.375 0H0V22H122.375V0Z" fill="white"/>
</g>
</mask>
<g mask="url(#mask0_10026_63524)">
<g id="Group">
<path id="Vector_2" d="M22.2793 17.7963V3.09326H28.484C29.5831 3.09326 30.5223 3.26181 31.2816 3.5989C32.041 3.93599 32.6205 4.40196 33.0101 4.99683C33.3998 5.59168 33.5896 6.2857 33.5896 7.07885C33.5896 7.69354 33.4797 8.2388 33.2499 8.73456C33.0201 9.23024 32.6804 9.63676 32.2208 9.97384C31.7612 10.3109 31.2116 10.539 30.5523 10.6679V10.7967C31.0518 10.9157 31.4714 11.114 31.8111 11.3916C32.1508 11.6692 32.4306 12.0063 32.6504 12.393C32.8802 12.7895 33.0801 13.2654 33.2599 13.8405L34.5288 17.7864H31.3716L30.2525 14.2767C30.0926 13.7116 29.9028 13.2754 29.683 12.9581C29.4632 12.6408 29.1834 12.4128 28.8237 12.2739C28.464 12.1352 28.0045 12.0559 27.4249 12.0559H25.3667V17.7765H22.2793V17.7963ZM27.9545 9.70613C28.474 9.70613 28.9236 9.62686 29.3133 9.47809C29.693 9.32938 29.9927 9.09144 30.2025 8.77423C30.4124 8.45694 30.5223 8.06039 30.5223 7.60431C30.5223 7.13832 30.4124 6.75167 30.2025 6.44432C29.9927 6.13698 29.693 5.90895 29.3133 5.77015C28.9336 5.63135 28.474 5.55203 27.9545 5.55203H25.3667V9.7161H27.9545V9.70613Z" fill="#FF9100"/>
<path id="Vector_3" d="M40.6448 18.0441C39.5258 18.0441 38.5167 17.7963 37.6174 17.3105C36.7082 16.8246 35.9988 16.1307 35.4792 15.2384C34.9597 14.3461 34.7 13.3249 34.7 12.1748C34.7 11.0346 34.9597 10.0135 35.4693 9.12119C35.9788 8.22888 36.6982 7.52495 37.5974 7.02926C38.5066 6.52361 39.5258 6.27576 40.6648 6.27576C41.8038 6.27576 42.823 6.52361 43.7222 7.02926C44.6214 7.52495 45.3308 8.22888 45.8403 9.12119C46.3499 10.0135 46.6097 11.0346 46.6097 12.1847C46.6097 13.3249 46.3499 14.3461 45.8304 15.2384C45.3108 16.1307 44.6014 16.8246 43.7022 17.3204C42.793 17.7963 41.7738 18.0441 40.6448 18.0441ZM40.6448 15.5952C41.2144 15.5952 41.7239 15.4564 42.1735 15.1789C42.6231 14.9013 42.9828 14.5047 43.2526 13.9892C43.5124 13.4736 43.6522 12.8688 43.6522 12.1748C43.6522 11.4907 43.5224 10.8859 43.2626 10.3605C43.0028 9.84492 42.6431 9.43847 42.1935 9.16086C41.7439 8.88324 41.2243 8.73454 40.6548 8.73454C40.0853 8.73454 39.5758 8.87334 39.1261 9.16086C38.6765 9.43847 38.3168 9.84492 38.057 10.3605C37.7973 10.876 37.6674 11.4907 37.6674 12.1847C37.6674 12.8688 37.7973 13.4736 38.0671 13.9892C38.3268 14.5047 38.6865 14.9013 39.1361 15.1789C39.5657 15.4564 40.0753 15.5952 40.6448 15.5952Z" fill="#FF9100"/>
<path id="Vector_4" d="M53.3932 18.0441C52.2741 18.0441 51.265 17.7963 50.3658 17.3105C49.4566 16.8246 48.7471 16.1307 48.2276 15.2384C47.708 14.3461 47.4482 13.3249 47.4482 12.1748C47.4482 11.0346 47.708 10.0135 48.2176 9.12119C48.7271 8.22888 49.4465 7.52495 50.3458 7.02926C51.255 6.52361 52.2741 6.27576 53.4131 6.27576C54.5522 6.27576 55.5713 6.52361 56.4705 7.02926C57.3698 7.52495 58.0791 8.22888 58.5887 9.12119C59.0983 10.0135 59.358 11.0346 59.358 12.1847C59.358 13.3249 59.0983 14.3461 58.5787 15.2384C58.0592 16.1307 57.3498 16.8246 56.4505 17.3204C55.5413 17.7963 54.5222 18.0441 53.3932 18.0441ZM53.3932 15.5952C53.9626 15.5952 54.4722 15.4564 54.9218 15.1789C55.3715 14.9013 55.7312 14.5047 56.0009 13.9892C56.2607 13.4736 56.4006 12.8688 56.4006 12.1748C56.4006 11.4907 56.2707 10.8859 56.0109 10.3605C55.7511 9.84492 55.3915 9.43847 54.9419 9.16086C54.4922 8.88324 53.9727 8.73454 53.4032 8.73454C52.8336 8.73454 52.3241 8.87334 51.8744 9.16086C51.4249 9.43847 51.0652 9.84492 50.8054 10.3605C50.5456 10.876 50.4157 11.4907 50.4157 12.1847C50.4157 12.8688 50.5456 13.4736 50.8153 13.9892C51.0751 14.5047 51.4348 14.9013 51.8845 15.1789C52.3141 15.4564 52.8237 15.5952 53.3932 15.5952Z" fill="#FF9100"/>
<path id="Vector_5" d="M65.4532 17.9747C64.5041 17.9747 63.7447 17.826 63.1952 17.5286C62.6357 17.2311 62.246 16.8246 62.0262 16.3289C61.7964 15.8233 61.6865 15.2285 61.6865 14.5443V8.80391H59.6782V6.49387H61.6865V3.66827H64.614V6.49387H67.2517V8.79401H64.614V14.3857C64.614 14.7724 64.7339 15.0698 64.9737 15.278C65.2135 15.4862 65.6031 15.5853 66.1426 15.5853C66.4823 15.5853 66.842 15.5457 67.2217 15.4763V17.6971C66.6722 17.8855 66.0827 17.9747 65.4532 17.9747Z" fill="#FF9100"/>
<path id="Vector_6" d="M72.8083 18.054C71.5495 18.054 70.5004 17.7764 69.661 17.2213C68.8215 16.666 68.2521 15.8729 67.9524 14.8319L70.3505 14.0288C70.5499 14.6138 70.86 15.0698 71.2697 15.3871C71.6795 15.7044 72.1889 15.863 72.7781 15.863C73.3776 15.863 73.8272 15.7539 74.1373 15.5457C74.4467 15.3375 74.5965 15.05 74.5965 14.7129C74.5965 14.4353 74.5271 14.2073 74.3868 14.0487C74.2473 13.8801 74.0073 13.7413 73.6773 13.6124C73.348 13.4934 72.8682 13.3645 72.259 13.2257C71.2993 13.0176 70.5403 12.7796 69.991 12.5119C69.441 12.2443 69.0312 11.9072 68.772 11.4809C68.5119 11.0545 68.372 10.5291 68.372 9.87472C68.372 9.15098 68.5619 8.52632 68.9315 7.98106C69.3014 7.43574 69.8308 7.01939 70.53 6.71202C71.2298 6.41458 72.0287 6.26587 72.9383 6.26587C73.7372 6.26587 74.4467 6.37493 75.0661 6.60296C75.6855 6.83099 76.1853 7.1681 76.5848 7.61421C76.9849 8.0604 77.2647 8.60566 77.4146 9.24015L75.0365 10.0333C74.8667 9.53763 74.5965 9.15098 74.2473 8.8634C73.887 8.58586 73.458 8.43708 72.9582 8.43708C72.6083 8.43708 72.3085 8.47675 72.0487 8.56599C71.7895 8.65523 71.5894 8.78413 71.4492 8.95264C71.3096 9.12122 71.2395 9.31949 71.2395 9.54753C71.2395 9.80528 71.2993 10.0135 71.4292 10.1622C71.5495 10.3109 71.7792 10.4398 72.0988 10.5489C72.4185 10.6579 72.8881 10.7769 73.4979 10.9058C74.5065 11.1239 75.306 11.3618 75.876 11.6296C76.4452 11.8873 76.8749 12.2344 77.1444 12.6507C77.4146 13.077 77.5542 13.6124 77.5542 14.2866C77.5542 15.05 77.374 15.7044 77.0048 16.2695C76.635 16.8247 76.0953 17.2609 75.3858 17.5782C74.677 17.8954 73.8176 18.054 72.8083 18.054Z" fill="#FF9100"/>
<path id="Vector_7" d="M83.7258 17.9747C82.7764 17.9747 82.0174 17.826 81.4674 17.5286C80.9084 17.2311 80.5186 16.8246 80.2986 16.3289C80.069 15.8233 79.959 15.2285 79.959 14.5443V8.80391H77.9508V6.49387H79.959V3.66827H82.8864V6.49387H85.5243V8.79401H82.8864V14.3857C82.8864 14.7724 83.0067 15.0698 83.2459 15.278C83.4859 15.4862 83.8757 15.5853 84.4154 15.5853C84.755 15.5853 85.1146 15.5457 85.4941 15.4763V17.6971C84.9447 17.8855 84.3549 17.9747 83.7258 17.9747Z" fill="#FF9100"/>
<path id="Vector_8" d="M92.1806 18.0441C91.0614 18.0441 90.0522 17.7963 89.1529 17.3105C88.244 16.8246 87.5345 16.1307 87.0148 15.2384C86.495 14.3461 86.2358 13.3249 86.2358 12.1748C86.2358 11.0346 86.495 10.0135 87.0052 9.12119C87.5146 8.22888 88.2337 7.52495 89.133 7.02926C90.0425 6.52361 91.0614 6.27576 92.2006 6.27576C93.3398 6.27576 94.3587 6.52361 95.2579 7.02926C96.1572 7.52495 96.8667 8.22888 97.3761 9.12119C97.8855 10.0135 98.1454 11.0346 98.1454 12.1847C98.1454 13.3249 97.8855 14.3461 97.3658 15.2384C96.8467 16.1307 96.1372 16.8246 95.238 17.3204C94.3284 17.7963 93.3191 18.0441 92.1806 18.0441ZM92.1806 15.5952C92.7499 15.5952 93.2593 15.4564 93.709 15.1789C94.1586 14.9013 94.5181 14.5047 94.7883 13.9892C95.0482 13.4736 95.1878 12.8688 95.1878 12.1748C95.1878 11.4907 95.0578 10.8859 94.798 10.3605C94.5388 9.84492 94.1785 9.43847 93.7289 9.16086C93.2793 8.88324 92.7602 8.73454 92.1903 8.73454C91.621 8.73454 91.1116 8.87334 90.662 9.16086C90.2123 9.43847 89.8528 9.84492 89.5929 10.3605C89.333 10.876 89.2031 11.4907 89.2031 12.1847C89.2031 12.8688 89.333 13.4736 89.6025 13.9892C89.8624 14.5047 90.222 14.9013 90.6716 15.1789C91.1116 15.4564 91.6107 15.5952 92.1806 15.5952Z" fill="#FF9100"/>
<path id="Vector_9" d="M105.19 18.0541C104.131 18.0541 103.152 17.836 102.253 17.3898C101.343 16.9437 100.624 16.2794 100.075 15.397C99.5246 14.5147 99.2551 13.4538 99.2551 12.2244C99.2551 11.005 99.515 9.95401 100.044 9.0518C100.574 8.1496 101.283 7.46553 102.182 6.97975C103.082 6.49392 104.081 6.25598 105.17 6.25598C106.07 6.25598 106.879 6.42452 107.598 6.76161C108.318 7.09868 108.927 7.55477 109.407 8.1397C109.886 8.72469 110.236 9.38895 110.435 10.1325L107.908 10.8563C107.788 10.4399 107.598 10.073 107.358 9.75573C107.119 9.43852 106.819 9.18071 106.469 8.99233C106.119 8.80396 105.709 8.71472 105.26 8.71472C104.66 8.71472 104.121 8.86343 103.652 9.15101C103.182 9.43852 102.812 9.84497 102.552 10.3704C102.293 10.8959 102.153 11.5007 102.153 12.1748C102.153 12.8788 102.292 13.4836 102.572 13.9991C102.852 14.5147 103.232 14.9112 103.701 15.1789C104.171 15.4466 104.681 15.5854 105.24 15.5854C105.689 15.5854 106.09 15.4962 106.449 15.3177C106.809 15.1393 107.108 14.8914 107.358 14.5939C107.608 14.2866 107.798 13.9496 107.928 13.5827L110.446 14.3263C110.265 14.9906 109.946 15.6053 109.487 16.1803C109.027 16.7454 108.427 17.2014 107.688 17.5485C106.959 17.8757 106.129 18.0541 105.19 18.0541Z" fill="#FF9100"/>
<path id="Vector_10" d="M111.875 17.7963V3.09326H114.802V11.005L119.398 6.4939H122.785L117.889 11.1933L122.755 17.7963H119.338L115.811 12.9581L114.792 13.9099V17.7963H111.875Z" fill="#FF9100"/>
<path id="Vector_11" d="M9.06063 5.81972C10.5836 5.81972 11.8183 4.5946 11.8183 3.08336C11.8183 1.5721 10.5836 0.346985 9.06063 0.346985C7.53761 0.346985 6.30298 1.5721 6.30298 3.08336C6.30298 4.5946 7.53761 5.81972 9.06063 5.81972Z" fill="#FF9100"/>
<path id="Vector_12" d="M16.7244 11.5403C15.4055 10.7868 13.7169 11.2329 12.9576 12.5417C12.6979 12.9878 12.578 13.4835 12.5879 13.9693C12.6179 15.1789 11.5189 15.8035 10.4797 15.1789C10.4398 15.1591 10.3998 15.1294 10.3498 15.1095C9.30078 14.5246 9.30078 13.2853 10.3498 12.7102C11.2091 12.2443 11.7986 11.3421 11.7986 10.301C11.7986 10.2812 11.7986 10.2614 11.7986 10.2416C11.7686 9.03199 12.8677 8.40739 13.9068 9.03199C14.7361 9.53764 15.8152 9.57731 16.7144 9.06175C18.0333 8.30825 18.4829 6.63271 17.7235 5.32401C16.9642 4.01531 15.2756 3.56917 13.9567 4.32266C13.0575 4.83821 12.5579 5.78999 12.578 6.75169C12.6079 7.9612 11.5088 8.58587 10.4797 7.9612C10.0601 7.70346 9.57048 7.55475 9.04097 7.55475C8.51139 7.55475 8.02182 7.70346 7.60217 7.9513C6.5631 8.566 5.47403 7.9414 5.504 6.74177C5.52399 5.77016 5.02442 4.82829 4.12519 4.31274C2.80631 3.55925 1.11776 4.01531 0.358416 5.32401C-0.400932 6.63271 0.0586738 8.30825 1.37754 9.06175C2.27677 9.57731 3.35585 9.52767 4.18514 9.03199C5.22424 8.40739 6.31331 9.03199 6.28333 10.2416C6.28333 10.2614 6.28333 10.2812 6.28333 10.301C6.28333 11.3421 6.86284 12.2443 7.73211 12.7102C8.78116 13.2952 8.78116 14.5345 7.73211 15.1095C7.69209 15.1294 7.65215 15.1591 7.61221 15.1789C6.57308 15.7936 5.48402 15.169 5.51399 13.9693C5.52399 13.4835 5.40409 12.9878 5.14431 12.5318C4.38496 11.223 2.69641 10.7769 1.37754 11.5304C0.0586738 12.3037 -0.39094 13.9792 0.368408 15.288C1.12775 16.5967 2.81631 17.0428 4.13518 16.2893C4.15516 16.2794 4.16515 16.2695 4.18514 16.2595C5.22424 15.6349 6.31331 16.2595 6.28333 17.4691C6.28333 17.4889 6.28333 17.5088 6.28333 17.5385C6.28333 19.0455 7.52228 20.2749 9.04097 20.2749C10.5597 20.2749 11.7986 19.0455 11.7986 17.5385C11.7986 17.5187 11.7986 17.4989 11.7986 17.479C11.7686 16.2695 12.8677 15.6449 13.9068 16.2695C13.9268 16.2794 13.9468 16.2893 13.9668 16.3092C15.2856 17.0626 16.9742 16.6165 17.7335 15.3078C18.4929 13.9693 18.0432 12.2938 16.7244 11.5403Z" fill="#FF9100"/>
</g>
</g>
</g>
</g>
<defs>
<clipPath id="clip0_10026_63524">
<rect width="122.375" height="22" fill="white"/>
</clipPath>
</defs>
</svg>

<svg xmlns="http://www.w3.org/2000/svg" fill="none" viewBox="0 0 123 22">
  <g clip-path="url(#rootstock_svg__a)">
    <mask id="rootstock_svg__b" width="123" height="22" x="0" y="0" maskUnits="userSpaceOnUse" style="mask-type:luminance">
      <path fill="#fff" d="M122.375 0H0v22h122.375V0Z"/>
    </mask>
    <g fill="#FF9100" mask="url(#rootstock_svg__b)">
      <path d="M22.28 17.796V3.093h6.204c1.1 0 2.038.169 2.798.506.759.337 1.338.803 1.728 1.398.39.595.58 1.289.58 2.082 0 .615-.11 1.16-.34 1.656-.23.495-.57.902-1.03 1.239-.459.337-1.008.565-1.668.694v.129c.5.119.92.317 1.26.595.339.277.619.614.838 1.001.23.396.43.872.61 1.447l1.269 3.946h-3.157l-1.12-3.51c-.16-.564-.35-1-.569-1.318a1.82 1.82 0 0 0-.86-.684c-.359-.139-.819-.218-1.398-.218h-2.058v5.72h-3.088v.02Zm5.674-8.09c.52 0 .97-.08 1.36-.228.379-.149.679-.387.889-.704.21-.317.32-.714.32-1.17 0-.466-.11-.852-.32-1.16a1.795 1.795 0 0 0-.89-.674 3.98 3.98 0 0 0-1.358-.218h-2.588v4.164h2.587v-.01Zm12.691 8.338c-1.12 0-2.128-.248-3.028-.733a5.355 5.355 0 0 1-2.138-2.073c-.52-.892-.779-1.913-.779-3.063 0-1.14.26-2.162.77-3.054a5.443 5.443 0 0 1 2.127-2.092c.91-.505 1.929-.753 3.068-.753s2.158.248 3.057.753c.9.496 1.609 1.2 2.118 2.092.51.893.77 1.914.77 3.064 0 1.14-.26 2.161-.78 3.053a5.486 5.486 0 0 1-2.128 2.082c-.909.476-1.928.724-3.057.724Zm0-2.449a2.85 2.85 0 0 0 1.528-.416c.45-.278.81-.674 1.08-1.19.26-.515.4-1.12.4-1.814 0-.684-.13-1.29-.39-1.815-.26-.515-.62-.922-1.07-1.2a2.892 2.892 0 0 0-1.538-.425c-.57 0-1.08.138-1.529.426-.45.277-.81.684-1.069 1.2-.26.515-.39 1.13-.39 1.824 0 .684.13 1.289.4 1.804.26.516.62.912 1.07 1.19.429.277.938.416 1.508.416Zm12.748 2.449c-1.119 0-2.128-.248-3.027-.733a5.354 5.354 0 0 1-2.138-2.073c-.52-.892-.78-1.913-.78-3.063 0-1.14.26-2.162.77-3.054a5.442 5.442 0 0 1 2.128-2.092c.909-.505 1.928-.753 3.067-.753 1.14 0 2.158.248 3.058.753a5.426 5.426 0 0 1 2.118 2.092c.51.893.769 1.914.769 3.064 0 1.14-.26 2.161-.78 3.053a5.485 5.485 0 0 1-2.128 2.082c-.909.476-1.928.724-3.057.724Zm0-2.449c.57 0 1.08-.139 1.529-.416a2.98 2.98 0 0 0 1.079-1.19c.26-.515.4-1.12.4-1.814 0-.684-.13-1.29-.39-1.815-.26-.515-.62-.922-1.07-1.2a2.892 2.892 0 0 0-1.538-.425c-.57 0-1.079.138-1.529.426-.45.277-.809.684-1.069 1.2-.26.515-.39 1.13-.39 1.824 0 .684.13 1.289.4 1.804.26.516.62.912 1.07 1.19.43.277.939.416 1.508.416Zm12.06 2.38c-.949 0-1.708-.149-2.258-.446-.56-.298-.949-.704-1.169-1.2-.23-.506-.34-1.1-.34-1.785v-5.74h-2.008v-2.31h2.009V3.668h2.927v2.826h2.638v2.3h-2.638v5.592c0 .386.12.684.36.892.24.208.63.307 1.169.307.34 0 .699-.04 1.079-.109v2.221a5.416 5.416 0 0 1-1.769.278Zm7.355.079c-1.259 0-2.308-.278-3.147-.833-.84-.555-1.409-1.348-1.709-2.39l2.398-.802c.2.585.51 1.04.92 1.358.41.317.919.476 1.508.476.6 0 1.05-.11 1.36-.317.309-.208.459-.496.459-.833 0-.278-.07-.506-.21-.664-.14-.169-.38-.308-.71-.437-.329-.119-.809-.248-1.418-.386-.96-.208-1.719-.446-2.268-.714-.55-.268-.96-.605-1.219-1.031-.26-.426-.4-.952-.4-1.606 0-.724.19-1.349.56-1.894.37-.545.899-.962 1.598-1.269.7-.297 1.499-.446 2.408-.446.8 0 1.509.109 2.128.337.62.228 1.12.565 1.519 1.011.4.446.68.992.83 1.626l-2.379.793a2.55 2.55 0 0 0-.789-1.17 2.056 2.056 0 0 0-1.289-.426c-.35 0-.65.04-.91.129-.258.09-.459.218-.599.387a.904.904 0 0 0-.21.595c0 .257.06.466.19.614.12.149.35.278.67.387.32.109.79.228 1.399.357 1.008.218 1.808.456 2.378.724.57.257.999.604 1.268 1.02.27.427.41.962.41 1.637 0 .763-.18 1.417-.55 1.982-.369.556-.909.992-1.618 1.31-.709.316-1.568.475-2.578.475Zm10.918-.079c-.95 0-1.709-.149-2.259-.446-.559-.298-.948-.704-1.168-1.2-.23-.506-.34-1.1-.34-1.785v-5.74h-2.008v-2.31h2.008V3.668h2.927v2.826h2.638v2.3h-2.638v5.592c0 .386.12.684.36.892.24.208.63.307 1.17.307.339 0 .699-.04 1.078-.109v2.221c-.55.189-1.14.278-1.768.278Zm8.454.069c-1.119 0-2.128-.248-3.027-.733a5.357 5.357 0 0 1-2.138-2.073c-.52-.892-.78-1.913-.78-3.063 0-1.14.26-2.162.77-3.054a5.44 5.44 0 0 1 2.128-2.092c.91-.505 1.928-.753 3.068-.753 1.139 0 2.158.248 3.057.753.9.496 1.609 1.2 2.118 2.092.51.893.77 1.914.77 3.064 0 1.14-.26 2.161-.78 3.053a5.482 5.482 0 0 1-2.128 2.082c-.91.476-1.919.724-3.057.724Zm0-2.449a2.85 2.85 0 0 0 1.529-.416c.45-.278.81-.674 1.08-1.19.26-.515.399-1.12.399-1.814 0-.684-.13-1.29-.39-1.815a2.92 2.92 0 0 0-1.07-1.2 2.89 2.89 0 0 0-1.538-.425c-.569 0-1.078.138-1.528.426-.45.277-.81.684-1.07 1.2-.259.515-.389 1.13-.389 1.824 0 .684.13 1.289.4 1.804.26.516.619.912 1.069 1.19.44.277.939.416 1.509.416Zm13.01 2.459c-1.059 0-2.038-.218-2.937-.664-.91-.446-1.629-1.11-2.178-1.993-.55-.882-.82-1.943-.82-3.173 0-1.219.26-2.27.789-3.172a5.42 5.42 0 0 1 2.138-2.072c.9-.486 1.899-.724 2.988-.724.9 0 1.709.169 2.428.506.72.337 1.329.793 1.809 1.378a5.274 5.274 0 0 1 1.028 1.992l-2.527.724a3.354 3.354 0 0 0-.55-1.1 2.723 2.723 0 0 0-.889-.764c-.35-.188-.76-.277-1.209-.277-.6 0-1.139.148-1.608.436a2.91 2.91 0 0 0-1.1 1.22 4.043 4.043 0 0 0-.399 1.804c0 .704.139 1.309.419 1.824.28.516.66.912 1.129 1.18.47.268.98.406 1.539.406.449 0 .85-.089 1.209-.267.36-.179.659-.427.909-.724.25-.307.44-.644.57-1.011l2.518.743a5.096 5.096 0 0 1-.959 1.854c-.46.565-1.06 1.021-1.799 1.369-.729.327-1.559.505-2.498.505Zm6.685-.258V3.093h2.927v7.912l4.596-4.511h3.387l-4.896 4.7 4.866 6.602h-3.417l-3.527-4.838-1.019.952v3.886h-2.917ZM9.06 5.82a2.747 2.747 0 0 0 2.758-2.737A2.747 2.747 0 0 0 9.061.347a2.747 2.747 0 0 0-2.758 2.736A2.747 2.747 0 0 0 9.061 5.82Z"/>
      <path d="M16.724 11.54c-1.319-.753-3.007-.307-3.766 1.002a2.72 2.72 0 0 0-.37 1.427c.03 1.21-1.07 1.835-2.108 1.21-.04-.02-.08-.05-.13-.07-1.05-.584-1.05-1.824 0-2.399a2.744 2.744 0 0 0 1.449-2.409v-.06c-.03-1.209 1.069-1.834 2.108-1.209.83.506 1.908.545 2.807.03a2.726 2.726 0 0 0 1.01-3.738 2.77 2.77 0 0 0-3.767-1.001 2.74 2.74 0 0 0-1.379 2.429c.03 1.21-1.07 1.834-2.098 1.21a2.732 2.732 0 0 0-1.439-.407c-.53 0-1.02.148-1.439.396-1.039.615-2.128-.01-2.098-1.21a2.73 2.73 0 0 0-1.379-2.428A2.774 2.774 0 0 0 .358 5.324a2.73 2.73 0 0 0 1.02 3.738 2.785 2.785 0 0 0 2.807-.03c1.04-.625 2.128 0 2.098 1.21v.059c0 1.041.58 1.943 1.45 2.41 1.048.584 1.048 1.823 0 2.399-.04.02-.08.05-.12.069-1.04.615-2.129-.01-2.099-1.21.01-.486-.11-.981-.37-1.437-.759-1.309-2.448-1.755-3.766-1.002-1.32.774-1.769 2.45-1.01 3.758a2.77 2.77 0 0 0 3.767 1.001c.02-.01.03-.02.05-.03 1.04-.624 2.128 0 2.098 1.21v.07c0 1.506 1.24 2.736 2.758 2.736 1.519 0 2.758-1.23 2.758-2.736v-.06c-.03-1.21 1.069-1.834 2.108-1.21.02.01.04.02.06.04 1.319.754 3.007.307 3.766-1.001.76-1.339.31-3.014-1.009-3.768Z"/>
    </g>
  </g>
  <defs>
    <clipPath id="rootstock_svg__a">
      <path fill="#fff" d="M0 0h122.375v22H0z"/>
    </clipPath>
  </defs>
</svg>
